src/assets/svg/webinars.svg

<?xml version="1.0" encoding="UTF-8"?>
<svg width="24px" height="24px" viewBox="0 0 24 24" version="1.1" xmlns="http://www.w3.org/2000/svg" xmlns:xlink="http://www.w3.org/1999/xlink">
    <title>994548ff-61bc-4407-af02-6cd640a50f99@1.00x</title>
    <g id="Iconography" stroke="none" stroke-width="1" fill="none" fill-rule="evenodd">
        <g id="1.-Primitives/Icons/1.-Foreground-Primary/Webinars" fill="#173145">
            <path d="M7,23 C6.44771525,23 6,22.5522847 6,22 C6,21.4871642 6.38604019,21.0644928 6.88337887,21.0067277 L7,21 L11,21 L11,18 L3,18 C1.40231912,18 0.0963391206,16.75108 0.00509269341,15.1762728 L0,15 L0,4 C0,2.40231912 1.24891996,1.09633912 2.82372721,1.00509269 L3,1 L21,1 C22.5976809,1 23.9036609,2.24891996 23.9949073,3.82372721 L24,4 L24,15 C24,16.5976809 22.75108,17.9036609 21.1762728,17.9949073 L21,18 L13,18 L13,21 L17,21 C17.5522847,21 18,21.4477153 18,22 C18,22.5128358 17.6139598,22.9355072 17.1166211,22.9932723 L17,23 L7,23 Z M21,3 L3,3 C2.48716416,3 2.06449284,3.38604019 2.00672773,3.88337887 L2,4 L2,15 C2,15.5128358 2.38604019,15.9355072 2.88337887,15.9932723 L3,16 L21,16 C21.5128358,16 21.9355072,15.6139598 21.9932723,15.1166211 L22,15 L22,4 C22,3.48716416 21.6139598,3.06449284 21.1166211,3.00672773 L21,3 Z" id="Shape"></path>
        </g>
    </g>
</svg>

<svg width="24" height="24" xmlns="http://www.w3.org/2000/svg"><path d="M7 23a1 1 0 01-.117-1.993L7 21h4v-3H3a3 3 0 01-2.995-2.824L0 15V4a3 3 0 012.824-2.995L3 1h18a3 3 0 012.995 2.824L24 4v11a3 3 0 01-2.824 2.995L21 18h-8v3h4a1 1 0 01.117 1.993L17 23H7zM21 3H3a1 1 0 00-.993.883L2 4v11a1 1 0 00.883.993L3 16h18a1 1 0 00.993-.883L22 15V4a1 1 0 00-.883-.993L21 3z" /></svg>
